X: 1
T: Ashes
M: 6/8
L: 1/8
R: jig
K: Dmaj
|:B|GBB FBB|EBB BAB|GBB FBB|BAG E2B|
GBB FBB|EBB  BAB|dBd BAG|FAG E2:|
d|eBB gBB|eBe gfe|dAA fAA|dAd fed|
eBB gBB|eBe gfe|dBd BAG|FAG E2d|
eBB gBB|eBe gfe|dAA fAA|afa fed|
fBB gBB|eBB gfe|dBd BAG|FAG E2z|
